X: 14698
T: Gan Ainm
R: jig
M: 6/8
K: Amajor
ed|c2 A AGA|E2 C EAc|d2 B BAB|GBA GFE|
c2 A AGA|E2 C EAc|dBA GFG|AdB Acd||
eca eca|f2 d dag|fed cBA|GAB Bcd|
eca eca|f2 d dag|fed cBA|GAB Bed||

